X: 5
T:One Bottle More
M:3/8
L:1/8
S:Sergt. James O'Neill
R:Air
K:G
"Moderato"G|GBd|d>BG|cee|e2 d/2c/2|Bdg|dBG|A>FD|D2||
D|G>FG|EFG|A/2B/2c/2d/2e/2f/2|g2 f/2e/2|
dfg|a/2g/2f/2e/2d/2c/2|BAG|GB/2d/2c|
A>FD|D2 E/2F/2|A/2B/2c/2d/2e/2f/2|g2 f/2e/2|
dg f/2g/2|a/2g/2f/2e/2d/2c/2|BGG|G2||
%
% slightly different from the setting in O'Farrell's
% Pocket Companion 1804-1810.

